findly-builder/apps/searchassist/src/assets/icons/content/carousel-analytics.svg

<svg width="54" height="54" viewBox="0 0 54 54" fill="none" xmlns="http://www.w3.org/2000/svg">
<circle cx="27" cy="27" r="26.5" fill="white" stroke="#FFDA2D"/>
<path d="M39.6666 43.625H14.3333V10.375H31.7499L39.6666 18.2917V43.625Z" fill="#FFED96"/>
<path d="M38.4793 19.0833H30.9585V11.5625L38.4793 19.0833Z" fill="#806D16"/>
<path d="M20.5535 36.9075L19.1965 36.0921L24.4675 27.3062L29.2175 32.0562L33.4465 25.0088L34.8034 25.8242L29.5325 34.6101L24.7825 29.8601L20.5535 36.9075Z" fill="#806D16"/>
<path d="M24.6251 27.0002C24.2052 27.0002 23.8024 27.167 23.5055 27.4639C23.2086 27.7608 23.0417 28.1636 23.0417 28.5835C23.0417 29.0034 23.2086 29.4061 23.5055 29.7031C23.8024 30 24.2052 30.1668 24.6251 30.1668C25.045 30.1668 25.4477 30 25.7447 29.7031C26.0416 29.4061 26.2084 29.0034 26.2084 28.5835C26.2084 28.1636 26.0416 27.7608 25.7447 27.4639C25.4477 27.167 25.045 27.0002 24.6251 27.0002ZM19.8751 34.9168C19.4552 34.9168 19.0524 35.0836 18.7555 35.3806C18.4586 35.6775 18.2917 36.0802 18.2917 36.5002C18.2917 36.9201 18.4586 37.3228 18.7555 37.6198C19.0524 37.9167 19.4552 38.0835 19.8751 38.0835C20.295 38.0835 20.6977 37.9167 20.9947 37.6198C21.2916 37.3228 21.4584 36.9201 21.4584 36.5002C21.4584 36.0802 21.2916 35.6775 20.9947 35.3806C20.6977 35.0836 20.295 34.9168 19.8751 34.9168ZM29.3751 31.7502C28.9552 31.7502 28.5524 31.917 28.2555 32.2139C27.9586 32.5108 27.7917 32.9136 27.7917 33.3335C27.7917 33.7534 27.9586 34.1562 28.2555 34.4531C28.5524 34.75 28.9552 34.9168 29.3751 34.9168C29.795 34.9168 30.1977 34.75 30.4947 34.4531C30.7916 34.1562 30.9584 33.7534 30.9584 33.3335C30.9584 32.9136 30.7916 32.5108 30.4947 32.2139C30.1977 31.917 29.795 31.7502 29.3751 31.7502ZM34.1251 23.8335C33.7052 23.8335 33.3024 24.0003 33.0055 24.2972C32.7086 24.5942 32.5417 24.9969 32.5417 25.4168C32.5417 25.8368 32.7086 26.2395 33.0055 26.5364C33.3024 26.8333 33.7052 27.0002 34.1251 27.0002C34.545 27.0002 34.9477 26.8333 35.2447 26.5364C35.5416 26.2395 35.7084 25.8368 35.7084 25.4168C35.7084 24.9969 35.5416 24.5942 35.2447 24.2972C34.9477 24.0003 34.545 23.8335 34.1251 23.8335Z" fill="#FFFBEA"/>
</svg>

<svg width="54" height="54" fill="none" xmlns="http://www.w3.org/2000/svg"><circle cx="27" cy="27" r="26.5" fill="#fff" stroke="#FFDA2D"/><path d="M39.667 43.625H14.333v-33.25H31.75l7.917 7.917v25.333Z" fill="#FFED96"/><path d="M38.48 19.083h-7.521v-7.52l7.52 7.52ZM20.553 36.907l-1.357-.815 5.271-8.786 4.75 4.75 4.23-7.047 1.356.815-5.27 8.786-4.75-4.75-4.23 7.047Z" fill="#806D16"/><path d="M24.625 27a1.583 1.583 0 1 0 0 3.167 1.583 1.583 0 0 0 0-3.167Zm-4.75 7.917a1.583 1.583 0 1 0 0 3.166 1.583 1.583 0 0 0 0-3.166Zm9.5-3.167a1.583 1.583 0 1 0 0 3.167 1.583 1.583 0 0 0 0-3.167Zm4.75-7.916a1.583 1.583 0 1 0 0 3.166 1.583 1.583 0 0 0 0-3.166Z" fill="#FFFBEA"/></svg>
